X: 98
T:Brian Boru's March
N: page 33
N: hexatonic
M:6/8
R:March
K:Bmin
f|:"Bm"d>cB B2f|d>cB B2e|"A"c>BA A2e|c>BA A2f|
"Bm"d>cB B2f|d>cB B2B|B>de f2e|[1dcB B2f:|[2dcB B2z|:
"D"Ade f2e|f2e f2e|"A"ABc e2c|e2c e2c|\
"Bm"B>de f2e|f2e f2e|B>de f2e|dcB B2z::
dcB b2b|dcB b2b|"A"cBA a2a|cBA a2a|\
"Bm"dcB b2b|dcB b2b|Bde f2e|dcB B2z:|
